assets/icons/script-filled.svg

<?xml version="1.0" encoding="UTF-8" standalone="no"?>
<svg
   viewBox="0 0 24 24"
   height="24"
   id="svg7384"
   version="1.1"
   width="24"
   sodipodi:docname="script-filled.svg"
   inkscape:version="1.2 (1:1.2.1+202207142221+cd75a1ee6d)"
   xmlns:inkscape="http://www.inkscape.org/namespaces/inkscape"
   xmlns:sodipodi="http://sodipodi.sourceforge.net/DTD/sodipodi-0.dtd"
   xmlns="http://www.w3.org/2000/svg"
   xmlns:svg="http://www.w3.org/2000/svg"
   xmlns:rdf="http://www.w3.org/1999/02/22-rdf-syntax-ns#"
   xmlns:cc="http://creativecommons.org/ns#"
   xmlns:dc="http://purl.org/dc/elements/1.1/">
  <sodipodi:namedview
     id="namedview21"
     pagecolor="#ffffff"
     bordercolor="#666666"
     borderopacity="1.0"
     inkscape:pageshadow="2"
     inkscape:pageopacity="0.0"
     inkscape:pagecheckerboard="0"
     showgrid="true"
     width="24px"
     inkscape:zoom="27.999993"
     inkscape:cx="13.071432"
     inkscape:cy="9.3571452"
     inkscape:window-width="1920"
     inkscape:window-height="1043"
     inkscape:window-x="0"
     inkscape:window-y="0"
     inkscape:window-maximized="1"
     inkscape:current-layer="svg7384"
     inkscape:showpageshadow="2"
     inkscape:deskcolor="#d1d1d1">
    <inkscape:grid
       type="xygrid"
       id="grid837"
       dotted="false" />
    <inkscape:grid
       type="xygrid"
       id="grid839"
       dotted="true"
       spacingx="0.5"
       spacingy="0.5"
       empspacing="10" />
  </sodipodi:namedview>
  <metadata
     id="metadata20854">
    <rdf:RDF>
      <cc:Work
         rdf:about="">
        <dc:format>image/svg+xml</dc:format>
        <dc:type
           rdf:resource="http://purl.org/dc/dcmitype/StillImage" />
      </cc:Work>
    </rdf:RDF>
  </metadata>
  <defs
     id="defs7386">
    <linearGradient
       id="linearGradient5606"
       inkscape:swatch="solid">
      <stop
         id="stop5608"
         offset="0"
         style="stop-color:#000000;stop-opacity:1;" />
    </linearGradient>
    <linearGradient
       id="linearGradient4526"
       inkscape:swatch="solid">
      <stop
         id="stop4528"
         offset="0"
         style="stop-color:#ffffff;stop-opacity:1;" />
    </linearGradient>
    <linearGradient
       id="linearGradient3600-4"
       inkscape:swatch="gradient">
      <stop
         id="stop3602-7"
         offset="0"
         style="stop-color:#f4f4f4;stop-opacity:1" />
      <stop
         id="stop3604-6"
         offset="1"
         style="stop-color:#dbdbdb;stop-opacity:1" />
    </linearGradient>
  </defs>
  <path
     id="path874"
     style="color:#000000;fill:#808080;fill-opacity:1"
     d="M 6.4550781 2 C 5.4865002 2.00898 4.7372573 2.0732708 4.1171875 2.4453125 C 3.7038076 2.6933406 3.3972493 3.1012215 3.2285156 3.6074219 C 3.0597823 4.1136223 3 4.7222254 3 5.5 L 3 18.5 C 3 19.277774 3.0585584 19.891312 3.25 20.408203 C 3.4414415 20.925097 3.8029647 21.335075 4.2773438 21.572266 C 5.2261015 22.046643 6.500008 22 8.5 22 L 15.5 22 C 16.999995 22 18.056053 22.050738 18.882812 21.554688 C 19.296194 21.30666 19.602753 20.89878 19.771484 20.392578 C 19.940218 19.886379 20 19.277774 20 18.5 L 20 8 L 15 8 L 14 8 L 14 2 L 7.5 2 C 7.1250015 2 6.7779375 1.99701 6.4550781 2 z M 15 2.2929688 L 15 7 L 19.707031 7 L 15 2.2929688 z M 7.4804688 10 A 0.5 0.5 0 0 1 7.7773438 10.083984 L 10.777344 12.083984 A 0.50005 0.50005 0 0 1 10.777344 12.916016 L 7.7773438 14.916016 A 0.5 0.5 0 0 1 7.0839844 14.777344 A 0.5 0.5 0 0 1 7.2226562 14.083984 L 9.5976562 12.5 L 7.2226562 10.916016 A 0.5 0.5 0 0 1 7.0839844 10.222656 A 0.5 0.5 0 0 1 7.4804688 10 z M 11 15 L 15 15 L 15 16 L 11 16 L 11 15 z " />
</svg>

<svg height="24" width="24" xmlns="http://www.w3.org/2000/svg"><path style="color:#000;fill:gray;fill-opacity:1" d="M6.455 2c-.968.009-1.718.073-2.338.445-.413.248-.72.656-.888 1.162C3.059 4.114 3 4.722 3 5.5v13c0 .778.059 1.391.25 1.908.191.517.553.927 1.027 1.164.95.475 2.223.428 4.223.428h7c1.5 0 2.556.05 3.383-.445.413-.248.72-.656.888-1.162.17-.507.229-1.115.229-1.893V8h-6V2H7.5c-.375 0-.722-.003-1.045 0zM15 2.293V7h4.707L15 2.293zM7.48 10a.5.5 0 0 1 .297.084l3 2a.5.5 0 0 1 0 .832l-3 2a.5.5 0 0 1-.693-.139.5.5 0 0 1 .139-.693L9.598 12.5l-2.375-1.584a.5.5 0 0 1-.139-.693A.5.5 0 0 1 7.48 10zM11 15h4v1h-4v-1z"/></svg>
